html/dist/img/svg/selis_yellow.svg

<svg width="960" height="727" viewBox="0 0 960 727" fill="none" xmlns="http://www.w3.org/2000/svg"><path fill="#100E0C" d="M0 0h960v727H0z"/><path fill="#FCBE00" d="M0 0h960v727H0z"/><path fill-rule="evenodd" clip-rule="evenodd" d="M567.616 263.321c-58.094-19.607-103.843-2.905-127.081 15.25-66.809 51.559-36.309 173.557 59.547 173.557 84.963-.726 51.558-79.88 5.083-110.38 31.226 10.893 86.415 34.131 82.058 79.154-4.357 47.202-45.749 66.809-90.046 66.082-2.905 0-6.536 0-9.441-.726-30.499-2.904-57.368-15.976-77.701-36.309C387.524 427.438 373 395.486 373 360.629c0-53.737 36.309-99.487 87.868-114.736 26.868-7.988 76.249-12.345 106.748 17.428z" fill="#fff"/><path d="M586.496 254.609v83.511h-5.81c-2.905-16.703-8.714-30.5-19.607-40.666-15.249-13.798-63.177-14.524-79.153 0-22.512 20.333 3.631 41.392 21.059 56.642 18.881 15.976 40.666 34.856 38.488 68.987-2.179-2.905-5.084-5.084-7.989-7.988-5.083-4.357-14.523-9.441-27.594-15.976-21.786-10.893-46.476-22.512-58.095-44.297-12.345-22.512-6.535-50.107 11.619-67.535 32.678-33.404 97.308-17.428 111.106-17.428 7.988 0 11.619-9.441 13.071-15.25h2.905zm-.002 196.792v33.404h-38.487c15.976-7.262 32.678-18.154 38.487-33.404z" fill="#fff"/></svg>

<svg width="960" height="727" viewBox="0 0 960 727" fill="none" xmlns="http://www.w3.org/2000/svg">
<rect width="960" height="727" fill="#100E0C"/>
<rect width="960" height="727" fill="#FCBE00"/>
<path fill-rule="evenodd" clip-rule="evenodd" d="M567.616 263.321C509.522 243.714 463.773 260.416 440.535 278.571C373.726 330.13 404.226 452.128 500.082 452.128C585.045 451.402 551.64 372.248 505.165 341.748C536.391 352.641 591.58 375.879 587.223 420.902C582.866 468.104 541.474 487.711 497.177 486.984C494.272 486.984 490.641 486.984 487.736 486.258C457.237 483.354 430.368 470.282 410.035 449.949C387.524 427.438 373 395.486 373 360.629C373 306.892 409.309 261.142 460.868 245.893C487.736 237.905 537.117 233.548 567.616 263.321Z" fill="white"/>
<path d="M586.496 254.609V338.12H580.686C577.781 321.417 571.972 307.62 561.079 297.454C545.83 283.656 497.902 282.93 481.926 297.454C459.414 317.787 485.557 338.846 502.985 354.096C521.866 370.072 543.651 388.952 541.473 423.083C539.294 420.178 536.389 417.999 533.484 415.095C528.401 410.738 518.961 405.654 505.89 399.119C484.104 388.226 459.414 376.607 447.795 354.822C435.45 332.31 441.26 304.715 459.414 287.287C492.092 253.883 556.722 269.859 570.52 269.859C578.508 269.859 582.139 260.418 583.591 254.609H586.496Z" fill="white"/>
<path d="M586.494 451.401V484.805H548.007C563.983 477.543 580.685 466.651 586.494 451.401Z" fill="white"/>
</svg>
